img/brands/9.svg

<svg width="220" height="25" viewBox="0 0 220 25" fill="none" xmlns="http://www.w3.org/2000/svg">
<path d="M92.9599 6.93555L89.2463 16.4335L84.7642 6.93555H82.183L78.015 16.6485L74.2147 6.93555H69.3145L76.9693 24.9748L78.4957 24.9772L83.4261 14.3191L88.3806 24.9841H89.9071L97.592 6.93555H92.9599Z" fill="#17449C"/>
<path d="M113.519 17.0783L101.449 17.0691C101.748 18.2291 102.322 19.1235 103.164 19.7544C104.008 20.3853 105.055 20.6996 106.302 20.6996C107.991 20.6996 109.587 20.0849 111.089 18.8532L113.029 22.2595C110.994 24.0851 108.703 24.9957 106.161 24.9933C103.457 24.991 101.213 24.0713 99.4335 22.2317C97.6532 20.3923 96.7656 18.116 96.7656 15.4006C96.7679 12.7106 97.6313 10.4413 99.3551 8.59248C101.079 6.74372 103.212 5.81934 105.756 5.81934C108.138 5.82165 110.08 6.63742 111.581 8.26665C113.083 9.89589 113.833 11.9203 113.831 14.3398C113.833 15.2273 113.727 16.1424 113.519 17.0783ZM102.978 10.8526C102.237 11.5182 101.728 12.4195 101.449 13.5541L109.288 13.5588C109.266 12.4241 108.896 11.5228 108.179 10.8549C107.462 10.187 106.596 9.8543 105.578 9.8543C104.587 9.8543 103.718 10.187 102.978 10.8526Z" fill="#17449C"/>
<path d="M131.294 8.5575C132.854 10.3716 133.633 12.6617 133.631 15.4256C133.629 18.1895 132.847 20.4774 131.286 22.2915C129.725 24.1033 127.729 25.0092 125.301 25.0092C122.873 25.0069 121.035 24.094 119.788 22.2661L119.786 24.5608L115.485 24.5586L115.503 0L120.184 0.00231095L120.178 8.01439C121.404 6.55849 123.116 5.83286 125.312 5.83286C127.741 5.83517 129.736 6.74337 131.294 8.5575ZM127.612 19.0677C128.456 18.1433 128.878 16.9162 128.881 15.3864C128.881 13.8819 128.454 12.6664 127.598 11.7397C126.743 10.813 125.691 10.3508 124.444 10.3485C123.242 10.3485 122.217 10.7852 121.373 11.6611C120.529 12.537 120.106 13.7895 120.104 15.4164C120.104 17.0687 120.531 18.3236 121.386 19.174C122.241 20.0267 123.259 20.452 124.437 20.4543C125.708 20.4543 126.767 19.9944 127.612 19.0677Z" fill="#17449C"/>
<path d="M161.397 8.61805C163.199 10.4576 164.099 12.7223 164.098 15.4122C164.095 18.1022 163.192 20.3715 161.388 22.2227C159.585 24.0737 157.397 24.9958 154.832 24.9935C152.266 24.9912 150.098 24.0714 148.329 22.2319C146.562 20.3924 145.679 18.1161 145.679 15.4007C145.681 12.7108 146.571 10.446 148.353 8.60881C150.135 6.77159 152.309 5.85414 154.875 5.85645C157.422 5.85645 159.594 6.77621 161.397 8.61805ZM151.684 11.8302C150.849 12.7801 150.434 13.9818 150.432 15.4377C150.432 16.8936 150.847 18.0837 151.679 19.0104C152.511 19.9371 153.574 20.3993 154.868 20.4016C156.14 20.4016 157.199 19.9348 158.043 18.9965C158.888 18.0583 159.31 16.8751 159.312 15.4446C159.314 14.0141 158.892 12.8171 158.048 11.8534C157.203 10.8897 156.146 10.409 154.875 10.4067C153.58 10.4067 152.515 10.8805 151.684 11.8302Z" fill="#17449C"/>
<path d="M165.894 24.3466L170.416 24.3488L170.425 11.5046L174.076 11.5068L174.079 7.39895L170.427 7.39673L170.428 7.17528C170.428 6.18096 170.676 5.47897 171.167 5.06485C171.659 4.65074 172.418 4.44479 173.445 4.44479C173.675 4.44479 173.92 4.45808 174.179 4.48244L174.181 0.372302C173.583 0.228359 172.958 0.15528 172.309 0.15528C170.322 0.153065 168.757 0.702264 167.617 1.80066C166.477 2.89906 165.906 4.54887 165.906 6.74788L165.894 24.3466Z" fill="#17449C"/>
<path d="M175.688 24.3466L180.21 24.3488L180.219 11.5046L183.87 11.5068L183.873 7.39895L180.221 7.39673L180.222 7.17528C180.222 6.18096 180.469 5.47897 180.961 5.06485C181.453 4.65074 182.212 4.44479 183.239 4.44479C183.469 4.44479 183.714 4.45808 183.973 4.48244L183.975 0.372302C183.377 0.228359 182.752 0.15528 182.103 0.15528C180.116 0.153065 178.551 0.702264 177.411 1.80066C176.271 2.89906 175.7 4.54887 175.7 6.74788L175.688 24.3466Z" fill="#17449C"/>
<path d="M140.04 10.3554L140.036 17.8243C140.036 18.862 140.289 19.5946 140.798 20.0267C141.307 20.4589 142.093 20.6761 143.156 20.6761C143.572 20.6761 144.035 20.6391 144.544 20.5652L144.541 24.748C143.732 25.0184 142.876 25.1547 141.976 25.1524C139.918 25.1501 138.299 24.577 137.121 23.4284C135.943 22.2799 135.354 20.5582 135.356 18.2634L135.36 10.3508L135.362 6.13093L135.365 0.0253906L140.047 0.0277016L140.044 6.13325L140.04 10.3554Z" fill="#17449C"/>
<path d="M141.266 6.97949L145.228 6.9818L145.226 11.2016L141.264 11.1993L141.266 6.97949Z" fill="#17449C"/>
<path d="M201.898 17.1403L189.828 17.1311C190.127 18.2911 190.701 19.1854 191.543 19.8164C192.388 20.4473 193.434 20.7615 194.681 20.7615C196.37 20.7615 197.966 20.1468 199.469 18.9151L201.409 22.3214C199.373 24.1471 197.082 25.0576 194.54 25.0553C191.836 25.053 189.592 24.1332 187.812 22.2937C186.032 20.4542 185.145 18.1779 185.145 15.4625C185.147 12.7726 186.009 10.5032 187.732 8.65211C189.456 6.80335 191.589 5.87897 194.133 5.87897C196.514 5.88128 198.457 6.69705 199.958 8.32628C201.461 9.95552 202.21 11.9799 202.207 14.3995C202.212 15.2892 202.108 16.202 201.898 17.1403ZM191.359 10.9145C190.619 11.5801 190.11 12.4814 189.83 13.6161L197.669 13.6207C197.648 12.486 197.277 11.5848 196.56 10.9169C195.843 10.249 194.977 9.9162 193.96 9.9162C192.966 9.9162 192.099 10.249 191.359 10.9145Z" fill="#17449C"/>
<path d="M219.977 17.1519L207.907 17.1426C208.205 18.3028 208.779 19.1971 209.621 19.828C210.466 20.4589 211.512 20.7732 212.759 20.7732C214.448 20.7732 216.044 20.1585 217.547 18.9267L219.487 22.3331C217.451 24.1587 215.161 25.0692 212.619 25.067C209.914 25.0646 207.671 24.1448 205.891 22.3054C204.111 20.4658 203.223 18.1895 203.223 15.4742C203.225 12.7842 204.087 10.5148 205.811 8.66378C207.534 6.81501 209.667 5.89062 212.211 5.89062C214.593 5.89294 216.536 6.70871 218.036 8.33795C219.539 9.96719 220.288 11.9916 220.286 14.4111C220.29 15.3008 220.184 16.2137 219.977 17.1519ZM209.435 10.9262C208.695 11.5917 208.186 12.493 207.907 13.6277L215.745 13.6323C215.723 12.4976 215.354 11.5964 214.636 10.9285C213.92 10.2607 213.053 9.92788 212.036 9.92788C211.044 9.92788 210.176 10.2607 209.435 10.9262Z" fill="#17449C"/>
<path d="M47.4225 23.5928C47.4225 24.3663 46.8284 25.0003 46.1037 25.0003H36.9087C36.184 25.0003 35.5898 24.3663 35.5898 23.5928V13.7796C35.5898 13.0062 36.184 12.3721 36.9087 12.3721H46.1037C46.8284 12.3721 47.4225 13.0062 47.4225 13.7796V23.5928Z" fill="#07BFDD"/>
<path d="M59.405 11.2208C59.405 11.9942 58.8108 12.6283 58.0861 12.6283H48.8911C48.1664 12.6283 47.5723 11.9942 47.5723 11.2208V1.40754C47.5723 0.634087 48.1664 0 48.8911 0H58.0861C58.8108 0 59.405 0.634087 59.405 1.40754V11.2208Z" fill="#007FFF"/>
<path d="M23.7975 23.5928C23.7975 24.3663 23.2033 25.0004 22.4787 25.0004H13.2836C12.5589 25.0004 11.9648 24.3663 11.9648 23.5928V13.7796C11.9648 13.0062 12.5589 12.3721 13.2836 12.3721H22.4787C23.2033 12.3721 23.7975 13.0062 23.7975 13.7796V23.5928Z" fill="#1DA5F8"/>
<path d="M11.8327 11.2218C11.8327 11.9952 11.2385 12.6293 10.5138 12.6293H1.31885C0.594136 12.6293 0 11.9975 0 11.2218V1.40851C0 0.635063 0.594136 0.000976562 1.31885 0.000976562H10.5138C11.2385 0.000976562 11.8327 0.635063 11.8327 1.40851V11.2218Z" fill="#8CC936"/>
</svg>

<svg width="220" height="25" fill="none" xmlns="http://www.w3.org/2000/svg"><path d="m92.96 6.936-3.714 9.497-4.482-9.497h-2.581l-4.168 9.712-3.8-9.712h-4.9l7.654 18.039 1.527.002 4.93-10.658 4.955 10.665h1.526l7.685-18.048H92.96zM113.519 17.078l-12.07-.009c.299 1.16.873 2.055 1.715 2.685.844.631 1.891.946 3.138.946 1.689 0 3.285-.615 4.787-1.847l1.94 3.406c-2.035 1.826-4.326 2.737-6.868 2.734-2.704-.002-4.948-.922-6.728-2.761-1.78-1.84-2.667-4.116-2.667-6.831.002-2.69.865-4.96 2.59-6.809 1.723-1.848 3.856-2.773 6.4-2.773 2.382.003 4.324.818 5.825 2.448 1.502 1.629 2.252 3.653 2.25 6.073.002.887-.104 1.802-.312 2.738zm-10.541-6.225c-.741.665-1.25 1.566-1.529 2.701l7.839.005c-.022-1.135-.392-2.036-1.109-2.704-.717-.668-1.583-1-2.601-1-.991 0-1.86.332-2.6.998zM131.294 8.557c1.56 1.815 2.339 4.105 2.337 6.869-.002 2.763-.784 5.051-2.345 6.865-1.561 1.812-3.557 2.718-5.985 2.718-2.428-.002-4.266-.915-5.513-2.743l-.002 2.295-4.301-.002L115.503 0l4.681.002-.006 8.012c1.226-1.456 2.938-2.181 5.134-2.181 2.429.002 4.424.91 5.982 2.724zm-3.682 10.51c.844-.924 1.266-2.15 1.269-3.68 0-1.505-.427-2.72-1.283-3.647-.855-.927-1.907-1.39-3.154-1.392-1.202 0-2.227.437-3.071 1.313-.844.876-1.267 2.129-1.269 3.755 0 1.653.427 2.908 1.282 3.758.855.853 1.873 1.278 3.051 1.28 1.271 0 2.33-.46 3.175-1.386zM161.397 8.618c1.802 1.84 2.702 4.104 2.701 6.794-.003 2.69-.906 4.96-2.71 6.81-1.803 1.852-3.991 2.774-6.556 2.771-2.566-.002-4.734-.922-6.503-2.761-1.767-1.84-2.65-4.116-2.65-6.831.002-2.69.892-4.955 2.674-6.792 1.782-1.837 3.956-2.755 6.522-2.753 2.547 0 4.719.92 6.522 2.762zm-9.713 3.212c-.835.95-1.25 2.152-1.252 3.608 0 1.456.415 2.646 1.247 3.572.832.927 1.895 1.39 3.189 1.392 1.272 0 2.331-.467 3.175-1.405.845-.939 1.267-2.122 1.269-3.552.002-1.43-.42-2.628-1.264-3.592-.845-.963-1.902-1.444-3.173-1.446-1.295 0-2.36.473-3.191 1.423zM165.894 24.347l4.522.002.009-12.844 3.651.002.003-4.108-3.652-.002.001-.222c0-.994.248-1.696.739-2.11.492-.414 1.251-.62 2.278-.62.23 0 .475.013.734.037l.002-4.11a7.98 7.98 0 0 0-1.872-.217c-1.987-.002-3.552.547-4.692 1.646-1.14 1.098-1.711 2.748-1.711 4.947l-.012 17.599zM175.688 24.347l4.522.002.009-12.844 3.651.002.003-4.108-3.652-.002.001-.222c0-.994.247-1.696.739-2.11.492-.414 1.251-.62 2.278-.62.23 0 .475.013.734.037l.002-4.11a7.98 7.98 0 0 0-1.872-.217c-1.987-.002-3.552.547-4.692 1.646-1.14 1.098-1.711 2.748-1.711 4.947l-.012 17.599zM140.04 10.355l-.004 7.47c0 1.037.253 1.77.762 2.202.509.432 1.295.65 2.358.65.416 0 .879-.038 1.388-.112l-.003 4.183a7.978 7.978 0 0 1-2.565.404c-2.058-.002-3.677-.575-4.855-1.724-1.178-1.148-1.767-2.87-1.765-5.165l.004-7.912.002-4.22.003-6.106 4.682.003-.003 6.105-.004 4.222z" fill="#17449C"/><path d="m141.266 6.98 3.962.002-.002 4.22-3.962-.003.002-4.22zM201.898 17.14l-12.07-.009c.299 1.16.873 2.054 1.715 2.685.845.631 1.891.946 3.138.946 1.689 0 3.285-.615 4.788-1.847l1.94 3.406c-2.036 1.826-4.327 2.737-6.869 2.734-2.704-.002-4.948-.922-6.728-2.761-1.78-1.84-2.667-4.116-2.667-6.832.002-2.69.864-4.959 2.587-6.81 1.724-1.849 3.857-2.773 6.401-2.773 2.381.002 4.324.818 5.825 2.447 1.503 1.63 2.252 3.654 2.249 6.073.005.89-.099 1.803-.309 2.741zm-10.539-6.226c-.74.666-1.249 1.567-1.529 2.702l7.839.005c-.021-1.135-.392-2.036-1.109-2.704-.717-.668-1.583-1-2.6-1-.994 0-1.861.332-2.601.998zM219.977 17.152l-12.07-.01c.298 1.16.872 2.055 1.714 2.686.845.63 1.891.945 3.138.945 1.689 0 3.285-.614 4.788-1.846l1.94 3.406c-2.036 1.826-4.326 2.736-6.868 2.734-2.705-.002-4.948-.922-6.728-2.762-1.78-1.84-2.668-4.116-2.668-6.83.002-2.69.864-4.96 2.588-6.811 1.723-1.849 3.856-2.773 6.4-2.773 2.382.002 4.325.818 5.825 2.447 1.503 1.63 2.252 3.654 2.25 6.073a12.45 12.45 0 0 1-.309 2.74zm-10.542-6.226c-.74.666-1.249 1.567-1.528 2.702l7.838.004c-.022-1.134-.391-2.036-1.109-2.704-.716-.667-1.583-1-2.6-1-.992 0-1.86.333-2.601.998z" fill="#17449C"/><path d="M47.422 23.593c0 .773-.594 1.407-1.318 1.407h-9.195c-.725 0-1.32-.634-1.32-1.407V13.78c0-.774.595-1.408 1.32-1.408h9.195c.724 0 1.319.634 1.319 1.408v9.813z" fill="#07BFDD"/><path d="M59.405 11.22c0 .774-.594 1.408-1.319 1.408h-9.195c-.725 0-1.319-.634-1.319-1.407V1.408c0-.774.594-1.408 1.32-1.408h9.194c.725 0 1.319.634 1.319 1.408v9.813z" fill="#007FFF"/><path d="M23.797 23.593c0 .773-.594 1.407-1.318 1.407h-9.195c-.725 0-1.32-.634-1.32-1.407V13.78c0-.774.595-1.408 1.32-1.408h9.195c.724 0 1.319.634 1.319 1.408v9.813z" fill="#1DA5F8"/><path d="M11.833 11.222c0 .773-.595 1.407-1.32 1.407H1.32C.594 12.63 0 11.998 0 11.222V1.409C0 .635.594 0 1.319 0h9.195c.725 0 1.319.634 1.319 1.408v9.813z" fill="#8CC936"/></svg>
